symbols/web/newspaper/materialsymbolsoutlined/newspaper_grad200_48px.svg

<svg xmlns="http://www.w3.org/2000/svg" height="48" width="48"><path d="M7.35 42.3q-1.55 0-2.6-1.05t-1.05-2.6V5.2l3.65 3.7 3.3-3.35L14 8.9l3.35-3.35 3.3 3.35L24 5.55l3.35 3.35 3.3-3.35L34 8.9l3.35-3.35 3.3 3.35 3.7-3.7v33.45q0 1.55-1.075 2.6T40.7 42.3Zm0-3.65H22.2V25.3H7.35v13.35Zm18.5 0H40.7V33.8H25.85Zm0-8.5H40.7V25.3H25.85Zm-18.5-8.5H40.7V16.3H7.35Z"/></svg>

<svg xmlns="http://www.w3.org/2000/svg" height="48" width="48"><path d="M7.35 42.3Q5.8 42.3 4.75 41.25Q3.7 40.2 3.7 38.65V5.2L7.35 8.9L10.65 5.55L14 8.9L17.35 5.55L20.65 8.9L24 5.55L27.35 8.9L30.65 5.55L34 8.9L37.35 5.55L40.65 8.9L44.35 5.2V38.65Q44.35 40.2 43.275 41.25Q42.2 42.3 40.7 42.3ZM7.35 38.65H22.2V25.3H7.35V38.65Q7.35 38.65 7.35 38.65Q7.35 38.65 7.35 38.65ZM25.85 38.65H40.7Q40.7 38.65 40.7 38.65Q40.7 38.65 40.7 38.65V33.8H25.85ZM25.85 30.15H40.7V25.3H25.85ZM7.35 21.65H40.7V16.3H7.35Z"/></svg>
